bernoullicharts/1_-_log_1_x_alt_series__mean.svg

<?xml version="1.0" encoding="utf-8" standalone="no"?>
<!DOCTYPE svg PUBLIC "-//W3C//DTD SVG 1.1//EN"
  "http://www.w3.org/Graphics/SVG/1.1/DTD/svg11.dtd">
<!-- Created with matplotlib (https://matplotlib.org/) -->
<svg height="345.6pt" version="1.1" viewBox="0 0 460.8 345.6" width="460.8pt" xmlns="http://www.w3.org/2000/svg" xmlns:xlink="http://www.w3.org/1999/xlink">
 <defs>
  <style type="text/css">
*{stroke-linecap:butt;stroke-linejoin:round;}
  </style>
 </defs>
 <g id="figure_1">
  <g id="patch_1">
   <path d="M 0 345.6 
L 460.8 345.6 
L 460.8 0 
L 0 0 
z
" style="fill:#ffffff;"/>
  </g>
  <g id="axes_1">
   <g id="patch_2">
    <path d="M 57.6 307.584 
L 414.72 307.584 
L 414.72 41.472 
L 57.6 41.472 
z
" style="fill:#ffffff;"/>
   </g>
   <g id="matplotlib.axis_1">
    <g id="xtick_1">
     <g id="line2d_1">
      <defs>
       <path d="M 0 0 
L 0 3.5 
" id="m97f08d333b" style="stroke:#000000;stroke-width:0.8;"/>
      </defs>
      <g>
       <use style="stroke:#000000;stroke-width:0.8;" x="73.800255" xlink:href="#m97f08d333b" y="307.584"/>
      </g>
     </g>
     <g id="text_1">
      <text style="font-family:DejaVu Sans;font-size:10px;font-style:normal;font-weight:normal;text-anchor:middle;" transform="rotate(-0, 73.800255, 322.182437)" x="73.800255" y="322.182437">0.0</text>
     </g>
    </g>
    <g id="xtick_2">
     <g id="line2d_2">
      <g>
       <use style="stroke:#000000;stroke-width:0.8;" x="138.744153" xlink:href="#m97f08d333b" y="307.584"/>
      </g>
     </g>
     <g id="text_2">
      <text style="font-family:DejaVu Sans;font-size:10px;font-style:normal;font-weight:normal;text-anchor:middle;" transform="rotate(-0, 138.744153, 322.182437)" x="138.744153" y="322.182437">0.2</text>
     </g>
    </g>
    <g id="xtick_3">
     <g id="line2d_3">
      <g>
       <use style="stroke:#000000;stroke-width:0.8;" x="203.688051" xlink:href="#m97f08d333b" y="307.584"/>
      </g>
     </g>
     <g id="text_3">
      <text style="font-family:DejaVu Sans;font-size:10px;font-style:normal;font-weight:normal;text-anchor:middle;" transform="rotate(-0, 203.688051, 322.182437)" x="203.688051" y="322.182437">0.4</text>
     </g>
    </g>
    <g id="xtick_4">
     <g id="line2d_4">
      <g>
       <use style="stroke:#000000;stroke-width:0.8;" x="268.631949" xlink:href="#m97f08d333b" y="307.584"/>
      </g>
     </g>
     <g id="text_4">
      <text style="font-family:DejaVu Sans;font-size:10px;font-style:normal;font-weight:normal;text-anchor:middle;" transform="rotate(-0, 268.631949, 322.182437)" x="268.631949" y="322.182437">0.6</text>
     </g>
    </g>
    <g id="xtick_5">
     <g id="line2d_5">
      <g>
       <use style="stroke:#000000;stroke-width:0.8;" x="333.575847" xlink:href="#m97f08d333b" y="307.584"/>
      </g>
     </g>
     <g id="text_5">
      <text style="font-family:DejaVu Sans;font-size:10px;font-style:normal;font-weight:normal;text-anchor:middle;" transform="rotate(-0, 333.575847, 322.182437)" x="333.575847" y="322.182437">0.8</text>
     </g>
    </g>
    <g id="xtick_6">
     <g id="line2d_6">
      <g>
       <use style="stroke:#000000;stroke-width:0.8;" x="398.519745" xlink:href="#m97f08d333b" y="307.584"/>
      </g>
     </g>
     <g id="text_6">
      <text style="font-family:DejaVu Sans;font-size:10px;font-style:normal;font-weight:normal;text-anchor:middle;" transform="rotate(-0, 398.519745, 322.182437)" x="398.519745" y="322.182437">1.0</text>
     </g>
    </g>
    <g id="text_7">
     <text style="font-family:DejaVu Sans;font-size:10px;font-style:normal;font-weight:normal;text-anchor:middle;" transform="rotate(-0, 236.16, 335.860562)" x="236.16" y="335.860562">Input Coin's Heads Probability (λ)</text>
    </g>
   </g>
   <g id="matplotlib.axis_2">
    <g id="ytick_1">
     <g id="line2d_7">
      <defs>
       <path d="M 0 0 
L -3.5 0 
" id="m3f62a5bb8b" style="stroke:#000000;stroke-width:0.8;"/>
      </defs>
      <g>
       <use style="stroke:#000000;stroke-width:0.8;" x="57.6" xlink:href="#m3f62a5bb8b" y="288.767067"/>
      </g>
     </g>
     <g id="text_8">
      <text style="font-family:DejaVu Sans;font-size:10px;font-style:normal;font-weight:normal;text-anchor:end;" transform="rotate(-0, 50.6, 292.566285)" x="50.6" y="292.566285">0.3</text>
     </g>
    </g>
    <g id="ytick_2">
     <g id="line2d_8">
      <g>
       <use style="stroke:#000000;stroke-width:0.8;" x="57.6" xlink:href="#m3f62a5bb8b" y="255.1624"/>
      </g>
     </g>
     <g id="text_9">
      <text style="font-family:DejaVu Sans;font-size:10px;font-style:normal;font-weight:normal;text-anchor:end;" transform="rotate(-0, 50.6, 258.961618)" x="50.6" y="258.961618">0.4</text>
     </g>
    </g>
    <g id="ytick_3">
     <g id="line2d_9">
      <g>
       <use style="stroke:#000000;stroke-width:0.8;" x="57.6" xlink:href="#m3f62a5bb8b" y="221.557732"/>
      </g>
     </g>
     <g id="text_10">
      <text style="font-family:DejaVu Sans;font-size:10px;font-style:normal;font-weight:normal;text-anchor:end;" transform="rotate(-0, 50.6, 225.356951)" x="50.6" y="225.356951">0.5</text>
     </g>
    </g>
    <g id="ytick_4">
     <g id="line2d_10">
      <g>
       <use style="stroke:#000000;stroke-width:0.8;" x="57.6" xlink:href="#m3f62a5bb8b" y="187.953065"/>
      </g>
     </g>
     <g id="text_11">
      <text style="font-family:DejaVu Sans;font-size:10px;font-style:normal;font-weight:normal;text-anchor:end;" transform="rotate(-0, 50.6, 191.752284)" x="50.6" y="191.752284">0.6</text>
     </g>
    </g>
    <g id="ytick_5">
     <g id="line2d_11">
      <g>
       <use style="stroke:#000000;stroke-width:0.8;" x="57.6" xlink:href="#m3f62a5bb8b" y="154.348398"/>
      </g>
     </g>
     <g id="text_12">
      <text style="font-family:DejaVu Sans;font-size:10px;font-style:normal;font-weight:normal;text-anchor:end;" transform="rotate(-0, 50.6, 158.147617)" x="50.6" y="158.147617">0.7</text>
     </g>
    </g>
    <g id="ytick_6">
     <g id="line2d_12">
      <g>
       <use style="stroke:#000000;stroke-width:0.8;" x="57.6" xlink:href="#m3f62a5bb8b" y="120.743731"/>
      </g>
     </g>
     <g id="text_13">
      <text style="font-family:DejaVu Sans;font-size:10px;font-style:normal;font-weight:normal;text-anchor:end;" transform="rotate(-0, 50.6, 124.54295)" x="50.6" y="124.54295">0.8</text>
     </g>
    </g>
    <g id="ytick_7">
     <g id="line2d_13">
      <g>
       <use style="stroke:#000000;stroke-width:0.8;" x="57.6" xlink:href="#m3f62a5bb8b" y="87.139064"/>
      </g>
     </g>
     <g id="text_14">
      <text style="font-family:DejaVu Sans;font-size:10px;font-style:normal;font-weight:normal;text-anchor:end;" transform="rotate(-0, 50.6, 90.938283)" x="50.6" y="90.938283">0.9</text>
     </g>
    </g>
    <g id="ytick_8">
     <g id="line2d_14">
      <g>
       <use style="stroke:#000000;stroke-width:0.8;" x="57.6" xlink:href="#m3f62a5bb8b" y="53.534397"/>
      </g>
     </g>
     <g id="text_15">
      <text style="font-family:DejaVu Sans;font-size:10px;font-style:normal;font-weight:normal;text-anchor:end;" transform="rotate(-0, 50.6, 57.333616)" x="50.6" y="57.333616">1.0</text>
     </g>
    </g>
    <g id="text_16">
     <text style="font-family:DejaVu Sans;font-size:10px;font-style:normal;font-weight:normal;text-anchor:middle;" transform="rotate(-90, 28.617187, 174.528)" x="28.617187" y="174.528">Simulated Mean / Function Value</text>
    </g>
   </g>
   <g id="line2d_15">
    <path clip-path="url(#p8ac4009216)" d="M 73.832727 53.568 
L 77.112066 56.944374 
L 80.391405 60.287161 
L 83.670744 63.597024 
L 86.950083 66.874604 
L 90.229421 70.120526 
L 93.50876 73.335394 
L 96.788099 76.519798 
L 100.067438 79.674309 
L 103.346777 82.799483 
L 106.626116 85.895862 
L 109.905455 88.96397 
L 113.184793 92.00432 
L 116.464132 95.017409 
L 119.743471 98.003721 
L 123.02281 100.963729 
L 126.302149 103.897892 
L 129.581488 106.806657 
L 132.860826 109.69046 
L 136.140165 112.549726 
L 139.419504 115.384869 
L 142.698843 118.196293 
L 145.978182 120.984391 
L 149.257521 123.749546 
L 152.53686 126.492135 
L 155.816198 129.212521 
L 159.095537 131.911062 
L 162.374876 134.588105 
L 165.654215 137.24399 
L 168.933554 139.87905 
L 172.212893 142.493608 
L 175.492231 145.087981 
L 178.77157 147.662478 
L 182.050909 150.217401 
L 185.330248 152.753046 
L 188.609587 155.269701 
L 191.888926 157.767649 
L 195.168264 160.247166 
L 198.447603 162.708522 
L 201.726942 165.15198 
L 205.006281 167.5778 
L 208.28562 169.986234 
L 211.564959 172.37753 
L 214.844298 174.75193 
L 218.123636 177.10967 
L 221.402975 179.450984 
L 224.682314 181.776097 
L 227.961653 184.085234 
L 231.240992 186.378612 
L 234.520331 188.656444 
L 237.799669 190.918941 
L 241.079008 193.166307 
L 244.358347 195.398742 
L 247.637686 197.616445 
L 250.917025 199.819609 
L 254.196364 202.008422 
L 257.475702 204.183071 
L 260.755041 206.343737 
L 264.03438 208.4906 
L 267.313719 210.623835 
L 270.593058 212.743613 
L 273.872397 214.850103 
L 277.151736 216.943471 
L 280.431074 219.023879 
L 283.710413 221.091488 
L 286.989752 223.146452 
L 290.269091 225.188926 
L 293.54843 227.219062 
L 296.827769 229.237006 
L 300.107107 231.242905 
L 303.386446 233.236901 
L 306.665785 235.219136 
L 309.945124 237.189747 
L 313.224463 239.148869 
L 316.503802 241.096635 
L 319.78314 243.033177 
L 323.062479 244.958624 
L 326.341818 246.873101 
L 329.621157 248.776733 
L 332.900496 250.669642 
L 336.179835 252.551948 
L 339.459174 254.423769 
L 342.738512 256.285222 
L 346.017851 258.13642 
L 349.29719 259.977477 
L 352.576529 261.808502 
L 355.855868 263.629604 
L 359.135207 265.440891 
L 362.414545 267.242467 
L 365.693884 269.034436 
L 368.973223 270.816901 
L 372.252562 272.58996 
L 375.531901 274.353714 
L 378.81124 276.108259 
L 382.090579 277.85369 
L 385.369917 279.590103 
L 388.649256 281.317589 
L 391.928595 283.03624 
L 395.207934 284.746147 
L 398.487273 286.447397 
" style="fill:none;stroke:#1f77b4;stroke-linecap:square;stroke-width:1.5;"/>
   </g>
   <g id="line2d_16">
    <path clip-path="url(#p8ac4009216)" d="M 73.832727 54.20649 
L 77.112066 56.894864 
L 80.391405 59.583237 
L 83.670744 68.992544 
L 86.950083 71.680917 
L 90.229421 66.976264 
L 93.50876 71.680917 
L 96.788099 71.680917 
L 100.067438 85.122784 
L 103.346777 83.106504 
L 106.626116 78.401851 
L 109.905455 84.450691 
L 113.184793 91.171624 
L 116.464132 84.450691 
L 119.743471 96.548371 
L 123.02281 106.629771 
L 126.302149 111.334424 
L 129.581488 106.629771 
L 132.860826 114.694891 
L 136.140165 102.597211 
L 139.419504 105.957678 
L 142.698843 117.383264 
L 145.978182 114.694891 
L 149.257521 124.104198 
L 152.53686 117.383264 
L 155.816198 126.120478 
L 159.095537 131.497225 
L 162.374876 128.136758 
L 165.654215 140.906531 
L 168.933554 137.546065 
L 172.212893 146.955371 
L 175.492231 135.529785 
L 178.77157 148.971652 
L 182.050909 147.627465 
L 185.330248 150.987932 
L 188.609587 160.397238 
L 191.888926 165.773985 
L 195.168264 159.053052 
L 198.447603 163.757705 
L 201.726942 177.871665 
L 205.006281 161.069332 
L 208.28562 161.741425 
L 211.564959 173.839105 
L 214.844298 173.839105 
L 218.123636 179.215852 
L 221.402975 174.511199 
L 224.682314 187.953065 
L 227.961653 181.232132 
L 231.240992 192.657719 
L 234.520331 177.199572 
L 237.799669 200.722839 
L 241.079008 204.083306 
L 244.358347 195.346092 
L 247.637686 192.657719 
L 250.917025 206.771679 
L 254.196364 208.787959 
L 257.475702 196.018185 
L 260.755041 213.492612 
L 264.03438 222.229826 
L 267.313719 218.869359 
L 270.593058 209.460052 
L 273.872397 206.771679 
L 277.151736 215.508892 
L 280.431074 225.590292 
L 283.710413 228.278666 
L 286.989752 226.934479 
L 290.269091 228.950759 
L 293.54843 221.557732 
L 296.827769 245.080999 
L 300.107107 224.918199 
L 303.386446 237.687973 
L 306.665785 239.704253 
L 309.945124 230.967039 
L 313.224463 243.064719 
L 316.503802 242.392626 
L 319.78314 251.801933 
L 323.062479 245.753093 
L 326.341818 242.392626 
L 329.621157 236.343786 
L 332.900496 251.129839 
L 336.179835 261.21124 
L 339.459174 261.21124 
L 342.738512 263.22752 
L 346.017851 258.522866 
L 349.29719 273.981013 
L 352.576529 265.2438 
L 355.855868 264.571706 
L 359.135207 263.899613 
L 362.414545 271.29264 
L 365.693884 275.3252 
L 368.973223 284.062413 
L 372.252562 287.42288 
L 375.531901 279.35776 
L 378.81124 279.35776 
L 382.090579 282.718227 
L 385.369917 282.046133 
L 388.649256 283.39032 
L 391.928595 280.701946 
L 395.207934 295.488 
L 398.487273 280.701946 
" style="fill:none;stroke:#ff7f0e;stroke-linecap:square;stroke-width:1.5;"/>
   </g>
   <g id="patch_3">
    <path d="M 57.6 307.584 
L 57.6 41.472 
" style="fill:none;stroke:#000000;stroke-linecap:square;stroke-linejoin:miter;stroke-width:0.8;"/>
   </g>
   <g id="patch_4">
    <path d="M 414.72 307.584 
L 414.72 41.472 
" style="fill:none;stroke:#000000;stroke-linecap:square;stroke-linejoin:miter;stroke-width:0.8;"/>
   </g>
   <g id="patch_5">
    <path d="M 57.6 307.584 
L 414.72 307.584 
" style="fill:none;stroke:#000000;stroke-linecap:square;stroke-linejoin:miter;stroke-width:0.8;"/>
   </g>
   <g id="patch_6">
    <path d="M 57.6 41.472 
L 414.72 41.472 
" style="fill:none;stroke:#000000;stroke-linecap:square;stroke-linejoin:miter;stroke-width:0.8;"/>
   </g>
   <g id="text_17">
    <text style="font-family:DejaVu Sans;font-size:12px;font-style:normal;font-weight:normal;text-anchor:middle;" transform="rotate(-0, 236.16, 35.472)" x="236.16" y="35.472">Expected Value in 1 - log(1+x) (Alt. Series) Algorithm</text>
   </g>
   <g id="legend_1">
    <g id="patch_7">
     <path d="M 157.10125 78.82825 
L 407.72 78.82825 
Q 409.72 78.82825 409.72 76.82825 
L 409.72 48.472 
Q 409.72 46.472 407.72 46.472 
L 157.10125 46.472 
Q 155.10125 46.472 155.10125 48.472 
L 155.10125 76.82825 
Q 155.10125 78.82825 157.10125 78.82825 
z
" style="fill:#ffffff;opacity:0.8;stroke:#cccccc;stroke-linejoin:miter;"/>
    </g>
    <g id="line2d_17">
     <path d="M 159.10125 54.570437 
L 179.10125 54.570437 
" style="fill:none;stroke:#1f77b4;stroke-linecap:square;stroke-width:1.5;"/>
    </g>
    <g id="line2d_18"/>
    <g id="text_18">
     <text style="font-family:DejaVu Sans;font-size:10px;font-style:normal;font-weight:normal;text-anchor:start;" transform="rotate(-0, 187.10125, 58.070437)" x="187.10125" y="58.070437">1 - log(1+x)</text>
    </g>
    <g id="line2d_19">
     <path d="M 159.10125 69.248562 
L 179.10125 69.248562 
" style="fill:none;stroke:#ff7f0e;stroke-linecap:square;stroke-width:1.5;"/>
    </g>
    <g id="line2d_20"/>
    <g id="text_19">
     <text style="font-family:DejaVu Sans;font-size:10px;font-style:normal;font-weight:normal;text-anchor:start;" transform="rotate(-0, 187.10125, 72.748562)" x="187.10125" y="72.748562">Simulated Mean of 1 - log(1+x) (Alt. Series)</text>
    </g>
   </g>
  </g>
 </g>
 <defs>
  <clipPath id="p8ac4009216">
   <rect height="266.112" width="357.12" x="57.6" y="41.472"/>
  </clipPath>
 </defs>
</svg>

<svg height="460.8" viewBox="0 0 460.8 345.6" width="614.4" xmlns="http://www.w3.org/2000/svg" xmlns:xlink="http://www.w3.org/1999/xlink"><defs><style>*{stroke-linecap:butt;stroke-linejoin:round}</style></defs><g id="figure_1"><path d="M0 345.6h460.8V0H0z" fill="#fff" id="patch_1"/><g id="axes_1"><path d="M57.6 307.584h357.12V41.472H57.6z" fill="#fff" id="patch_2"/><g id="matplotlib.axis_1"><g id="xtick_1"><g id="line2d_1"><defs><path d="M0 0v3.5" id="m97f08d333b" stroke="#000" stroke-width=".8"/></defs><use x="73.8" xlink:href="#m97f08d333b" y="307.584" stroke="#000" stroke-width=".8"/></g><text x="73.8" y="322.182" font-family="DejaVu Sans" font-size="10" font-weight="400" text-anchor="middle" id="text_1">0.0</text></g><g id="xtick_2"><use x="138.744" xlink:href="#m97f08d333b" y="307.584" stroke="#000" stroke-width=".8" id="line2d_2"/><text x="138.744" y="322.182" font-family="DejaVu Sans" font-size="10" font-weight="400" text-anchor="middle" id="text_2">0.2</text></g><g id="xtick_3"><use x="203.688" xlink:href="#m97f08d333b" y="307.584" stroke="#000" stroke-width=".8" id="line2d_3"/><text x="203.688" y="322.182" font-family="DejaVu Sans" font-size="10" font-weight="400" text-anchor="middle" id="text_3">0.4</text></g><g id="xtick_4"><use x="268.632" xlink:href="#m97f08d333b" y="307.584" stroke="#000" stroke-width=".8" id="line2d_4"/><text x="268.632" y="322.182" font-family="DejaVu Sans" font-size="10" font-weight="400" text-anchor="middle" id="text_4">0.6</text></g><g id="xtick_5"><use x="333.576" xlink:href="#m97f08d333b" y="307.584" stroke="#000" stroke-width=".8" id="line2d_5"/><text x="333.576" y="322.182" font-family="DejaVu Sans" font-size="10" font-weight="400" text-anchor="middle" id="text_5">0.8</text></g><g id="xtick_6"><use x="398.52" xlink:href="#m97f08d333b" y="307.584" stroke="#000" stroke-width=".8" id="line2d_6"/><text x="398.52" y="322.182" font-family="DejaVu Sans" font-size="10" font-weight="400" text-anchor="middle" id="text_6">1.0</text></g><text x="236.16" y="335.861" font-family="DejaVu Sans" font-size="10" font-weight="400" text-anchor="middle" id="text_7">Input Coin&apos;s Heads Probability (λ)</text></g><g id="matplotlib.axis_2"><g id="ytick_1"><g id="line2d_7"><defs><path d="M0 0h-3.5" id="m3f62a5bb8b" stroke="#000" stroke-width=".8"/></defs><use x="57.6" xlink:href="#m3f62a5bb8b" y="288.767" stroke="#000" stroke-width=".8"/></g><text x="50.6" y="292.566" font-family="DejaVu Sans" font-size="10" font-weight="400" text-anchor="end" id="text_8">0.3</text></g><g id="ytick_2"><use x="57.6" xlink:href="#m3f62a5bb8b" y="255.162" stroke="#000" stroke-width=".8" id="line2d_8"/><text x="50.6" y="258.962" font-family="DejaVu Sans" font-size="10" font-weight="400" text-anchor="end" id="text_9">0.4</text></g><g id="ytick_3"><use x="57.6" xlink:href="#m3f62a5bb8b" y="221.558" stroke="#000" stroke-width=".8" id="line2d_9"/><text x="50.6" y="225.357" font-family="DejaVu Sans" font-size="10" font-weight="400" text-anchor="end" id="text_10">0.5</text></g><g id="ytick_4"><use x="57.6" xlink:href="#m3f62a5bb8b" y="187.953" stroke="#000" stroke-width=".8" id="line2d_10"/><text x="50.6" y="191.752" font-family="DejaVu Sans" font-size="10" font-weight="400" text-anchor="end" id="text_11">0.6</text></g><g id="ytick_5"><use x="57.6" xlink:href="#m3f62a5bb8b" y="154.348" stroke="#000" stroke-width=".8" id="line2d_11"/><text x="50.6" y="158.148" font-family="DejaVu Sans" font-size="10" font-weight="400" text-anchor="end" id="text_12">0.7</text></g><g id="ytick_6"><use x="57.6" xlink:href="#m3f62a5bb8b" y="120.744" stroke="#000" stroke-width=".8" id="line2d_12"/><text x="50.6" y="124.543" font-family="DejaVu Sans" font-size="10" font-weight="400" text-anchor="end" id="text_13">0.8</text></g><g id="ytick_7"><use x="57.6" xlink:href="#m3f62a5bb8b" y="87.139" stroke="#000" stroke-width=".8" id="line2d_13"/><text x="50.6" y="90.938" font-family="DejaVu Sans" font-size="10" font-weight="400" text-anchor="end" id="text_14">0.9</text></g><g id="ytick_8"><use x="57.6" xlink:href="#m3f62a5bb8b" y="53.534" stroke="#000" stroke-width=".8" id="line2d_14"/><text x="50.6" y="57.334" font-family="DejaVu Sans" font-size="10" font-weight="400" text-anchor="end" id="text_15">1.0</text></g><text transform="rotate(-90 28.617 174.528)" x="28.617" y="174.528" font-family="DejaVu Sans" font-size="10" font-weight="400" text-anchor="middle" id="text_16">Simulated Mean / Function Value</text></g><path clip-path="url(#p8ac4009216)" d="M73.833 53.568l3.28 3.376 3.278 3.343 3.28 3.31 3.28 3.278 3.278 3.246 3.28 3.214 3.28 3.185 3.278 3.154 3.28 3.125 3.28 3.097 3.278 3.068 3.28 3.04 3.28 3.013 3.278 2.987 3.28 2.96 3.28 2.934 3.278 2.909 3.28 2.883 3.28 2.86 3.279 2.835 3.279 2.811 3.28 2.788 3.279 2.766 3.279 2.742 3.28 2.72 3.279 2.7 3.279 2.676 3.28 2.656 3.279 2.635 3.279 2.615 3.28 2.594 3.279 2.574 3.279 2.555 3.28 2.536 3.279 2.517 3.279 2.498 3.28 2.48 3.279 2.46 3.279 2.444 3.28 2.426 3.279 2.408 3.279 2.392 3.28 2.374 3.279 2.358 3.279 2.341 3.28 2.325 3.279 2.31 3.279 2.293 3.28 2.277 3.279 2.263 3.279 2.247 3.28 2.233 3.279 2.217 3.279 2.204 3.28 2.188 3.279 2.175 3.279 2.16 3.28 2.148 3.279 2.133 3.28 2.12 3.278 2.106 3.28 2.093 3.28 2.08 3.278 2.068 3.28 2.055 3.28 2.043 3.278 2.03 3.28 2.018 3.28 2.006 3.278 1.994 3.28 1.982 3.28 1.97 3.278 1.96 3.28 1.948 3.28 1.936 3.278 1.926 3.28 1.914 3.28 1.904 3.278 1.893 3.28 1.882 3.28 1.872 3.279 1.861 3.279 1.851 3.28 1.841 3.279 1.832 3.279 1.82 3.28 1.812 3.279 1.801 3.279 1.792 3.28 1.783 3.279 1.773 3.279 1.764 3.28 1.754 3.279 1.746 3.279 1.736 3.28 1.728 3.279 1.718 3.279 1.71 3.28 1.701" fill="none" stroke="#1f77b4" stroke-linecap="square" stroke-width="1.5" id="line2d_15"/><path clip-path="url(#p8ac4009216)" d="M73.833 54.206l3.28 2.689 3.278 2.688 3.28 9.41 3.28 2.688 3.278-4.705 3.28 4.705h3.28l3.278 13.442 3.28-2.016 3.28-4.705 3.278 6.049 3.28 6.72 3.28-6.72 3.278 12.097 3.28 10.082 3.28 4.704 3.278-4.704 3.28 8.065 3.28-12.098 3.279 3.36 3.279 11.426 3.28-2.688 3.279 9.41 3.279-6.722 3.28 8.737 3.279 5.377 3.279-3.36 3.28 12.77 3.279-3.36 3.279 9.408 3.28-11.425 3.279 13.442 3.279-1.345 3.28 3.36 3.279 9.41 3.279 5.377 3.28-6.72 3.279 4.704 3.279 14.114 3.28-16.803 3.279.672 3.279 12.098h3.28l3.279 5.377 3.279-4.705 3.28 13.442 3.279-6.72 3.279 11.425 3.28-15.458 3.279 23.523 3.279 3.36 3.28-8.737 3.279-2.688 3.279 14.114 3.28 2.016 3.279-12.77 3.279 17.475 3.28 8.737 3.279-3.36 3.28-9.41 3.278-2.688 3.28 8.737 3.28 10.081 3.278 2.689 3.28-1.345 3.28 2.017 3.278-7.393 3.28 23.523 3.28-20.163 3.278 12.77 3.28 2.016 3.28-8.737 3.278 12.098 3.28-.672 3.28 9.409 3.278-6.049 3.28-3.36 3.28-6.05 3.278 14.787 3.28 10.081h3.28l3.279 2.017 3.279-4.705 3.28 15.458 3.279-8.737 3.279-.672 3.28-.672 3.279 7.393 3.279 4.032 3.28 8.737 3.279 3.36 3.279-8.064h3.28l3.279 3.36 3.279-.672 3.28 1.344 3.279-2.688 3.279 14.786 3.28-14.786" fill="none" stroke="#ff7f0e" stroke-linecap="square" stroke-width="1.5" id="line2d_16"/><path d="M57.6 307.584V41.472" fill="none" stroke="#000" stroke-linecap="square" stroke-width=".8" id="patch_3"/><path d="M414.72 307.584V41.472" fill="none" stroke="#000" stroke-linecap="square" stroke-width=".8" id="patch_4"/><path d="M57.6 307.584h357.12" fill="none" stroke="#000" stroke-linecap="square" stroke-width=".8" id="patch_5"/><path d="M57.6 41.472h357.12" fill="none" stroke="#000" stroke-linecap="square" stroke-width=".8" id="patch_6"/><text x="236.16" y="35.472" font-family="DejaVu Sans" font-size="12" font-weight="400" text-anchor="middle" id="text_17">Expected Value in 1 - log(1+x) (Alt. Series) Algorithm</text><g id="legend_1"><path d="M157.101 78.828H407.72q2 0 2-2V48.472q0-2-2-2H157.101q-2 0-2 2v28.356q0 2 2 2z" fill="#fff" opacity=".8" stroke="#ccc" id="patch_7"/><path d="M159.101 54.57h20" fill="none" stroke="#1f77b4" stroke-linecap="square" stroke-width="1.5" id="line2d_17"/><text x="187.101" y="58.07" font-family="DejaVu Sans" font-size="10" font-weight="400" id="text_18">1 - log(1+x)</text><path d="M159.101 69.249h20" fill="none" stroke="#ff7f0e" stroke-linecap="square" stroke-width="1.5" id="line2d_19"/><text x="187.101" y="72.749" font-family="DejaVu Sans" font-size="10" font-weight="400" id="text_19">Simulated Mean of 1 - log(1+x) (Alt. Series)</text></g></g></g><defs><clipPath id="p8ac4009216"><path d="M57.6 41.472h357.12v266.112H57.6z"/></clipPath></defs></svg>
